img/wave.svg

<svg width="1440" height="219" viewBox="0 0 1440 219" fill="none" xmlns="http://www.w3.org/2000/svg">
<g clip-path="url(#clip0_38_179)">
<path d="M1458 52.1615C1355.33 52.1615 1433.24 219 1363.26 219C1293.28 219 1356.2 72.7575 1300.3 72.7575C1244.4 72.7575 1293.28 197.788 1233.85 197.788C1174.42 197.788 1230.09 19.2527 1164.94 18.6931C1116.33 18.2733 1148.03 183.405 1088.16 183.405C1020.37 183.405 1086.41 80.341 1025.67 80.341C964.933 80.341 997.039 217.209 946.009 217.209C894.979 217.209 972.836 58.4019 894.95 58.4019C817.063 58.4019 903.289 202.434 827.59 202.434C751.891 202.434 824.966 109.388 759.385 109.388C708.092 109.388 726.58 155.113 688.73 155.113C623.791 155.113 688.934 27.9836 619.854 27.9836C550.774 27.9836 630.323 195.886 554.623 195.886C478.924 195.886 548.937 56.9187 490.471 56.9187C432.005 56.9187 476.124 172.239 424.511 172.239C360.359 172.239 428.244 35.7911 360.797 35.7911C291.308 35.6791 363.275 187.49 281.598 187.49C212.868 187.49 270.08 38.0578 201.758 37.4141C120.11 36.6026 199.513 200.699 121.16 200.699C42.8069 200.699 98.8232 25.3532 34.7296 25.3532C2.09952 25.3532 0 64.8381 0 64.8381V0H1458V52.1615Z" fill="#322C2B"/>
</g>
<defs>
<clipPath id="clip0_38_179">
<rect width="1458" height="219" fill="white"/>
</clipPath>
</defs>
</svg>

<svg width="1440" height="219" fill="none" xmlns="http://www.w3.org/2000/svg"><g clip-path="url(#a)"><path d="M1458 52.161c-102.67 0-24.76 166.839-94.74 166.839-69.98 0-7.06-146.243-62.96-146.243s-7.02 125.031-66.45 125.031c-59.43 0-3.76-178.535-68.91-179.095-48.61-.42-16.91 164.712-76.78 164.712-67.79 0-1.75-103.064-62.49-103.064-60.737 0-28.631 136.868-79.661 136.868S972.836 58.402 894.95 58.402c-77.887 0 8.339 144.032-67.36 144.032s-2.624-93.046-68.205-93.046c-51.293 0-32.805 45.725-70.655 45.725-64.939 0 .204-127.13-68.876-127.13s10.469 167.903-65.231 167.903c-75.699 0-5.686-138.967-64.152-138.967s-14.347 115.32-65.96 115.32c-64.152 0 3.733-136.448-63.714-136.448-69.489-.112 2.478 151.699-79.199 151.699-68.73 0-11.518-149.432-79.84-150.076-81.648-.811-2.245 163.285-80.598 163.285S98.823 25.353 34.73 25.353C2.1 25.353 0 64.838 0 64.838V0h1458v52.161Z" fill="#322C2B"/></g><defs><clipPath id="a"><path fill="#fff" d="M0 0h1458v219H0z"/></clipPath></defs></svg>
